events/images/conference.svg

<?xml version="1.0" encoding="UTF-8" standalone="no"?>
<svg
   width="492"
   height="491.99899"
   overflow="hidden"
   version="1.1"
   id="svg14"
   sodipodi:docname="conference.svg"
   inkscape:version="1.4.3 (0d15f75, 2025-12-25)"
   xmlns:inkscape="http://www.inkscape.org/namespaces/inkscape"
   xmlns:sodipodi="http://sodipodi.sourceforge.net/DTD/sodipodi-0.dtd"
   xmlns="http://www.w3.org/2000/svg"
   xmlns:svg="http://www.w3.org/2000/svg">
  <defs
     id="defs14" />
  <sodipodi:namedview
     id="namedview14"
     pagecolor="#ffffff"
     bordercolor="#000000"
     borderopacity="0.25"
     inkscape:showpageshadow="2"
     inkscape:pageopacity="0.0"
     inkscape:pagecheckerboard="0"
     inkscape:deskcolor="#d1d1d1"
     inkscape:zoom="0.6875"
     inkscape:cx="245.81818"
     inkscape:cy="246.54545"
     inkscape:window-width="1972"
     inkscape:window-height="1198"
     inkscape:window-x="56"
     inkscape:window-y="57"
     inkscape:window-maximized="0"
     inkscape:current-layer="svg14" />
  <g
     id="g14"
     transform="translate(-394,-114)">
    <path
       d="M 394,270.043 C 394,183.863 463.863,114 550.043,114 H 729.957 C 816.137,114 886,183.863 886,270.043 v 179.914 c 0,86.18 -69.863,156.042 -156.043,156.042 H 550.043 C 463.863,605.999 394,536.137 394,449.957 Z"
       fill="#fceebd"
       fill-rule="evenodd"
       id="path1" />
    <g
       id="g6">
      <g
         id="g5">
        <g
           id="g4">
          <path
             d="m 130,52.8125 c 11.917,0 21.667,-9.75 21.667,-21.6667 0,-11.9166 -9.75,-21.66663 -21.667,-21.66663 -11.917,0 -21.667,9.75003 -21.667,21.66663 0,11.9167 9.75,21.6667 21.667,21.6667"
             fill="#00883a"
             transform="matrix(1,0,0,1.00385,510,135)"
             id="path2" />
          <path
             d="M 184.167,134.062 195,101.562 H 65 l 10.8333,32.5 h 16.25 L 102.917,239.688 H 86.6667 v 10.833 h 86.6663 v -10.833 h -16.25 l 10.834,-105.626 z"
             fill="#00883a"
             transform="matrix(1,0,0,1.00385,510,135)"
             id="path3" />
          <path
             d="m 173.875,78.2708 c -0.542,-2.1666 -1.625,-4.3333 -3.25,-5.9583 -6.5,-5.4167 -14.083,-9.2083 -22.75,-11.9167 -5.958,-1.0833 -11.917,-2.1666 -17.875,-2.1666 -5.958,0 -11.917,1.0833 -17.875,2.7083 -8.667,2.1667 -16.25,6.5 -22.75,11.9167 -1.625,1.625 -2.7083,3.7916 -3.25,5.9583 l -2.7083,11.9167 h 93.4373 z"
             fill="#00883a"
             transform="matrix(1,0,0,1.00385,510,135)"
             id="path4" />
        </g>
      </g>
    </g>
    <g
       id="g13">
      <g
         id="g12">
        <g
           id="g11">
          <path
             d="m 104.156,97.2125 c 0,15.6885 -12.7177,28.4065 -28.406,28.4065 -15.6883,0 -28.4062,-12.718 -28.4062,-28.4065 0,-15.6883 12.7179,-28.4063 28.4062,-28.4063 15.6883,0 28.406,12.718 28.406,28.4063 z"
             fill="#00883a"
             transform="matrix(1.0033,0,0,1,488,337)"
             id="path6" />
          <path
             d="m 255.656,97.2125 c 0,15.6885 -12.718,28.4065 -28.406,28.4065 -15.688,0 -28.406,-12.718 -28.406,-28.4065 0,-15.6883 12.718,-28.4063 28.406,-28.4063 15.688,0 28.406,12.718 28.406,28.4063 z"
             fill="#00883a"
             transform="matrix(1.0033,0,0,1,488,337)"
             id="path7" />
          <path
             d="m 208.312,234.194 v -28.407 c 0,-4.418 -1.893,-8.837 -5.681,-11.362 -7.575,-6.313 -17.675,-10.731 -27.775,-13.256 -6.943,-1.894 -15.15,-3.788 -23.356,-3.788 -7.575,0 -15.781,1.263 -23.356,3.788 -10.1,2.525 -19.569,7.575 -27.775,13.256 -3.7877,3.156 -5.6815,6.944 -5.6815,11.362 v 28.407 z"
             fill="#00883a"
             transform="matrix(1.0033,0,0,1,488,337)"
             id="path8" />
          <path
             d="m 179.906,141.4 c 0,15.688 -12.718,28.406 -28.406,28.406 -15.688,0 -28.406,-12.718 -28.406,-28.406 0,-15.688 12.718,-28.406 28.406,-28.406 15.688,0 28.406,12.718 28.406,28.406 z"
             fill="#00883a"
             transform="matrix(1.0033,0,0,1,488,337)"
             id="path9" />
          <path
             d="m 278.381,150.237 c -7.575,-6.312 -17.675,-10.731 -27.775,-13.256 -6.944,-1.894 -15.15,-3.787 -23.356,-3.787 -7.575,0 -15.781,1.262 -23.356,3.787 -3.788,1.263 -7.575,2.525 -11.363,4.419 v 0.631 c 0,10.732 -4.419,20.831 -11.362,27.775 11.994,3.788 21.462,8.838 29.037,14.519 1.894,1.894 3.788,3.156 5.05,5.681 h 68.806 V 161.6 c 0,-4.419 -1.893,-8.837 -5.681,-11.363 z"
             fill="#00883a"
             transform="matrix(1.0033,0,0,1,488,337)"
             id="path10" />
          <path
             d="m 92.7937,184.325 v 0 c 8.8373,-6.312 18.9373,-11.363 29.0373,-14.519 -6.943,-7.575 -11.362,-17.043 -11.362,-27.775 0,-0.631 0,-0.631 0,-1.262 -3.788,-1.263 -7.575,-3.157 -11.3628,-3.788 -6.9437,-1.894 -15.1499,-3.787 -23.3562,-3.787 -7.575,0 -15.7812,1.262 -23.3562,3.787 -10.1001,3.157 -19.5688,7.575 -27.775,13.256 -3.7876,2.526 -5.6813,6.944 -5.6813,11.363 v 28.406 h 68.175 c 1.8938,-2.525 3.1563,-3.787 5.6812,-5.681 z"
             fill="#00883a"
             transform="matrix(1.0033,0,0,1,488,337)"
             id="path11" />
        </g>
      </g>
    </g>
  </g>
</svg>

<svg width="1280" height="720" xmlns="http://www.w3.org/2000/svg" xmlns:xlink="http://www.w3.org/1999/xlink" overflow="hidden"><g><rect x="0" y="0" width="1280" height="720" fill="#FFFFFF"/><path d="M394 270.043C394 183.863 463.863 114 550.043 114L729.957 114C816.137 114 886 183.863 886 270.043L886 449.957C886 536.137 816.137 605.999 729.957 605.999L550.043 605.999C463.863 605.999 394 536.137 394 449.957Z" fill="#FCEEBD" fill-rule="evenodd"/><g><g><g><path d="M130 52.8125C141.917 52.8125 151.667 43.0625 151.667 31.1458 151.667 19.2292 141.917 9.47917 130 9.47917 118.083 9.47917 108.333 19.2292 108.333 31.1458 108.333 43.0625 118.083 52.8125 130 52.8125" fill="#00883A" transform="matrix(1 0 0 1.00385 510 135)"/><path d="M184.167 134.062 195 101.562 65 101.562 75.8333 134.062 92.0833 134.062 102.917 239.688 86.6667 239.688 86.6667 250.521 173.333 250.521 173.333 239.688 157.083 239.688 167.917 134.062Z" fill="#00883A" transform="matrix(1 0 0 1.00385 510 135)"/><path d="M173.875 78.2708C173.333 76.1042 172.25 73.9375 170.625 72.3125 164.125 66.8958 156.542 63.1042 147.875 60.3958 141.917 59.3125 135.958 58.2292 130 58.2292 124.042 58.2292 118.083 59.3125 112.125 60.9375 103.458 63.1042 95.875 67.4375 89.375 72.8542 87.75 74.4792 86.6667 76.6458 86.125 78.8125L83.4167 90.7292 176.854 90.7292 173.875 78.2708Z" fill="#00883A" transform="matrix(1 0 0 1.00385 510 135)"/></g></g></g><g><g><g><path d="M104.156 97.2125C104.156 112.901 91.4383 125.619 75.75 125.619 60.0617 125.619 47.3438 112.901 47.3438 97.2125 47.3438 81.5242 60.0617 68.8062 75.75 68.8062 91.4383 68.8062 104.156 81.5242 104.156 97.2125Z" fill="#00883A" transform="matrix(1.0033 0 0 1 488 337)"/><path d="M255.656 97.2125C255.656 112.901 242.938 125.619 227.25 125.619 211.562 125.619 198.844 112.901 198.844 97.2125 198.844 81.5242 211.562 68.8062 227.25 68.8062 242.938 68.8062 255.656 81.5242 255.656 97.2125Z" fill="#00883A" transform="matrix(1.0033 0 0 1 488 337)"/><path d="M208.312 234.194 208.312 205.787C208.312 201.369 206.419 196.95 202.631 194.425 195.056 188.112 184.956 183.694 174.856 181.169 167.913 179.275 159.706 177.381 151.5 177.381 143.925 177.381 135.719 178.644 128.144 181.169 118.044 183.694 108.575 188.744 100.369 194.425 96.5813 197.581 94.6875 201.369 94.6875 205.787L94.6875 234.194 208.312 234.194Z" fill="#00883A" transform="matrix(1.0033 0 0 1 488 337)"/><path d="M179.906 141.4C179.906 157.088 167.188 169.806 151.5 169.806 135.812 169.806 123.094 157.088 123.094 141.4 123.094 125.712 135.812 112.994 151.5 112.994 167.188 112.994 179.906 125.712 179.906 141.4Z" fill="#00883A" transform="matrix(1.0033 0 0 1 488 337)"/><path d="M278.381 150.237C270.806 143.925 260.706 139.506 250.606 136.981 243.662 135.087 235.456 133.194 227.25 133.194 219.675 133.194 211.469 134.456 203.894 136.981 200.106 138.244 196.319 139.506 192.531 141.4L192.531 142.031C192.531 152.763 188.112 162.862 181.169 169.806 193.163 173.594 202.631 178.644 210.206 184.325 212.1 186.219 213.994 187.481 215.256 190.006L284.062 190.006 284.062 161.6C284.062 157.181 282.169 152.763 278.381 150.237Z" fill="#00883A" transform="matrix(1.0033 0 0 1 488 337)"/><path d="M92.7937 184.325 92.7937 184.325C101.631 178.013 111.731 172.962 121.831 169.806 114.888 162.231 110.469 152.763 110.469 142.031 110.469 141.4 110.469 141.4 110.469 140.769 106.681 139.506 102.894 137.612 99.1062 136.981 92.1625 135.087 83.9563 133.194 75.75 133.194 68.175 133.194 59.9688 134.456 52.3938 136.981 42.2937 140.138 32.825 144.556 24.6188 150.237 20.8312 152.763 18.9375 157.181 18.9375 161.6L18.9375 190.006 87.1125 190.006C89.0063 187.481 90.2688 186.219 92.7937 184.325Z" fill="#00883A" transform="matrix(1.0033 0 0 1 488 337)"/></g></g></g></g></svg>
